X:1
T:Rire et jouer
T:Rire et jouer
T:anonymus
C:anonymus
%%score [ 1 [ 2 3 ] 4 ]
L:1/8
Q:1/4=120
M:2/2
K:C
V:1 treble nm="Alto" snm="A"
V:2 treble-8 nm="Tenor 1" snm="T 1"
V:3 treble-8 nm="Tenor 2" snm="T 2"
V:4 bass nm="Bass" snm="B"
V:1
 F8 | E4 D4- | D4 C4- | C2 D2 E2 F2 | G2 F4 E2 | F3 E D2 C2 | D2 E2 A,2 D2- |"^#" D2 C2 D4 | %8
w: Ri-|r'et jou-|* er|_ on se peult|par rai- *|* * son, on|se peult par rai|_ _ son|
 E4 F2 F2 | G4 E4 | D2 D2 F4- | F2 ED C2 F2- | FE E4 D2 | E8 | z2 E2 E3 F | G2 A2 AG F2- | %16
w: cour- toi- se-|ment en|temps et en|_ _ _ _ sai-||son|les biens _|_ mon- dains _ _|
 F2 ED E2 F2- | F2 E2 F2 C2 | D2 E2 F2 ED | E4 z2 E2 | F2 G2 A4 | G4 z2 G2 | G2 G2 G4 | A8 | %24
w: _ _ _ _ _|* * * par-|bai- ser ac- que- *|rir font|am' et corps|_ a|mal sou- vent|pe-|
 G4 F4 | E4 D4- | D8 | C4 z2 C2 | C2 C2 D2 E2 | F6 E2- |"^#" ED D4 C2 | D4 z2 C2 | C2 C2 D2 E2 | %33
w: rir, sou-|vent pe-||rir, font|am' et corps a|mal sou-|* * vent pe-|rir, font|am' et corps a|
 F6 E2- | ED D4 C2 | D8- | D8- | D8 |] %38
w: mal sou-|* * vent pe-|rir.|_||
V:2
 c8 | c4 A4- | A8 | A4 c2 c2 |"^b" d4 c3 B | A2 c2 G2 A2 | A2 c2 A2 G2 | A2 A2 FGAB | c2 c2 A2 A2 | %9
w: Ri-|r'et jou-||er on se|peult par- *|* rai- son, on|se peult par _|_ rai- son _ _ _|_ cour- toi- se-|
 e4 z2 e2 | g4 d4- | d2 cB A3 G | AB c2 A3 B | c4 A3 G/F/ | E2 c2 c4 | c4 A4 | A3 B c3 d | %17
w: ment en|temps et|_ _ _ en _|_ _ sai- son _|_ _ _ _|* les biens|mon- dains|par bai- * ser|
 c2 c2 A2 A2 | A2 c2 c2 c2 | c4 z2 c2 | cd e4 e2 | e4 z2 e2 | e4 e4 | f8 | e4 d4 | c4 _B4- | %26
w: ac- que- rir, par|bai- ser ac- que-|rir font|am' _ _ et|corps a|mal sou-|vent|pe- rir,|sou- vent|
 B4 _B4 | A4 z2 A2 | A2 A2 A2 c2 | c4 c2 c2- | cBAG A4 | F4 z2 A2 | A2 A2 A2 c2 | c4 c2 c2- | %34
w: _ pe-|rir, font|am' et corps a|mal sou- vent|_ _ _ _ pe-|rir, font|am' et corps a|mal sou- vent|
 cBAG A2 A2 |"^b" A2 F2 G2 B2 |"^b""^b" B2 B2 A4- | A8 |] %38
w: _ _ _ _ _ pe-|rir [a mal sou-|vent pe- rir.]|_|
V:3
 A8 | G4 F4- | F4 E4- | E2 F2 G2 A2 | _B3 A GF G2 | F2 C2 D2 E2 | F2 G2 F2 ED | E2 E2 D2 d2 | %8
w: Ri-|r'et jou-|* er|_ on se peult|par _ _ _ rai-|son, ri- r'et jou-|er on peult _ _|par rai- son cour-|
 G2 G2 d4 | z2 B2 c3 B | A2 d4 cB | A4 z2 A2- | AG E2 F2 F2 | E4 E4 | A2 A2 G4 | z2 E2 F3 G | %16
w: toi- se- ment,|cour- toi- se-|ment en _ _|temps et|_ _ _ en sai-|son les|biens mon- dains|par bai- *|
 A2 F2 G2 F2 | G4 F2 E2 | F2 A2 A2 A2 | G4 z2 G2 | A2 B2 c4 | B4 z2 c2 | c4 c4 | c2 c2 c4- | %24
w: * ser ac- *|que- rir, par|bai- ser ac- que-|rir font|am'- et corps|_ a|mal sou-|vent pe- rir,|
 c4 A4 | A3 G F4- | F4 G4 | E4 z2 E2 | E2 E2 F2 G2 | A4 A2 G2- | GFED E2 E2 | D4 z2 E2 | %32
w: _ a|mal sou- vent|_ pe-|rir font|am' et corps a|mal sou- vent|_ _ _ _ _ pe-|rir, font|
 E2 E2 F2 G2 | A4 A2 G2- | GFED E4 | D4 G4- | G4 F4- | F8 |] %38
w: am' et corps a|mal sou- vent|_ _ _ _ _|* pe-|* rir.|_|
V:4
 F,8 | C,4 D,4- | D,4 A,,4- | G,,2 D,2 C,2 F,2 | _B,,4 C,4 | F,,2 A,,2 B,,2 A,,2 | %6
w: Ri-|r'et jou-|* er|_ on se peult|par rai-|son, ri- r'et jou-|
 D,2 C,2 D,2 B,,2 | A,,2 A,,2 D,4 | C,4 D,4 | E,4 C,4 | D,8- | D,4 F,3 E, | D,2 C,2 D,2 D,2 | %13
w: er on- peut _|par rai- son|cour- toi-|se- ment|en|_ temps _|_ et en sai-|
 A,,8- | A,,4 C,4- | C,4 D,4- | D,4 C,2 F,,2 | C,4 F,,2 A,,2 | D,2 C,2 F,,G,,A,,B,, | C,4 z2 C,2 | %20
w: son|_ les|_ biens|_ mon- dains|par bai- ser|ac- que- rir _ _ _|_ font|
 F,2 E,2 A,4 | E,4 z2 C,2 | C,4 C,4 | F,8 | C,4 D,4 | A,,4 _B,,3 C, | D,2 D,2 G,,4 | A,,4 z2 A,,2 | %28
w: am' et corps|_ a|mal sou-|vent|pe- rir,|a mal sou-|vent pe- rir|_ font|
"^#" A,,2 A,,2 D,2 C,2 | F,4 F,,2 C,2- | C,2 D,2 A,,2 A,,2 | D,4 z2 A,,2 | A,,2 A,,2 D,2 C,2 | %33
w: am' et corps a|mal a mal|_ sou- vent pe-|rir, font|am' et corps a|
 F,4 F,,2 C,2- | C,2 D,2 A,,4 | D,4 G,,4- |"^b" G,,A,,B,,C, D,4- | D,8 |] %38
w: mal, a mal|_ sou- vent|pe- rir|_ _ _ _ _||

